!!!COM: Anonymous
!!!OTL@@POL: Synu Boży
!!!TXO: Polish
!!!ODT: 
!!!GTL: Hymnbook L 1642
!!!ARL: Biblioteka Diecezjalna w Sandomierzu 
!!!voices:	4
**kern	**text	**kern	**text	**kern	**text	**kern	**text
*staff4	*staff4	*staff3	*staff3	*staff2	*staff2	*staff1	*staff1
*I"Basso	*	*I"Canto III	*	*I"Canto II	*	*I"Canto I	*
=1-	=1-	=1-	=1-	=1-	=1-	=1-	=1-
*clefF4	*	*clefG2	*	*clefG2	*	*clefG2	*
*k[b-]	*	*k[b-]	*	*k[b-]	*	*k[b-]	*
*met(c|)	*	*met(c|)	*	*met(c|)	*	*met(c|)	*
*M2/2	*	*M2/2	*	*M2/2	*	*M2/2	*
[1G	Sy-	[1g	Sy-	[1b-	Sy-	[1dd	Sy-
=2	=2	=2	=2	=2	=2	=2	=2
2G\]	.	2g/]	.	2b-\]	.	2dd\]	.
2E-\	-nu	2g/	-nu	2cc\	-nu	2gg\	-nu
=3	=3	=3	=3	=3	=3	=3	=3
1D	Bo-	1a	Bo-	1dd	Bo-	1ff#	Bo-
=4	=4	=4	=4	=4	=4	=4	=4
1D	-ży	1a	-ży	1dd	-ży	1ff#i	-ży
=5	=5	=5	=5	=5	=5	=5	=5
2r	.	2r	.	2r	.	2r	.
2BB-/	przecz	2b-\	przecz	2dd\	przecz	2ff\	przecz
=6	=6	=6	=6	=6	=6	=6	=6
1E-	na	1b-	na	1ee-	na	1gg	na
=7	=7	=7	=7	=7	=7	=7	=7
2BB-/	tym	2b-\	tym	2dd\	tym	2ff\	tym
[2BB-/	drze-	[2b-\	drze-	[2dd\	drze-	[2ff\	drze-
=8	=8	=8	=8	=8	=8	=8	=8
2BB-/]	.	2b-\]	.	2dd\]	.	2ff\]	.
2C/	-wie	2g/	-wie	2cc\	-wie	2ee-\	-wie
=9	=9	=9	=9	=9	=9	=9	=9
2FF/	za-	2a/	za-	2cc\	za-	2cc\	za-
2BB-/	-wie-	2f/	-wie-	2b-\	-wie-	2dd\	-wie-
=10	=10	=10	=10	=10	=10	=10	=10
1GG	-szo-	1g	-szo-	1b-	-szo-	1b-	-szo-
=11	=11	=11	=11	=11	=11	=11	=11
1FF	-ny	1a	-ny	1a	-ny	1cc	-ny
=12	=12	=12	=12	=12	=12	=12	=12
1r	.	1r	.	2r	.	2r	.
.	.	.	.	[2a/	u-	[2cc\	u-
=13	=13	=13	=13	=13	=13	=13	=13
1r	.	1r	.	2a/]	.	2cc\]	.
.	.	.	.	2b-\	-mie-	2dd\	-mie-
=14	=14	=14	=14	=14	=14	=14	=14
1r	.	1r	.	1cc	-rasz	1ee-	-rasz
=15	=15	=15	=15	=15	=15	=15	=15
1r	.	1r	.	2r	.	2r	.
.	.	.	.	[2b-\	u-	[2dd\	u-
=16	=16	=16	=16	=16	=16	=16	=16
1r	.	1r	.	2b-\]	.	2dd\]	.
.	.	.	.	2cc\	-mie-	2ee-i\	-mie-
=17	=17	=17	=17	=17	=17	=17	=17
1r	.	1r	.	1dd	-rasz	1ff	-rasz
=18	=18	=18	=18	=18	=18	=18	=18
2r	.	2r	.	2r	.	2r	.
[2F\	u-	[2a/	u-	[2a/	u-	[2cc\	u-
=19	=19	=19	=19	=19	=19	=19	=19
2F\]	.	2a/]	.	2a/]	.	2cc\]	.
2D\	-mie-	2f/	-mie-	2b-\	-mie-	2dd\	-mie-
=20	=20	=20	=20	=20	=20	=20	=20
1C	-rasz	1g	-rasz	1cc	-rasz	1ee-	-rasz
=21	=21	=21	=21	=21	=21	=21	=21
2D\	tak	2a/	tak	2a/	tak	2dd\	tak
2F#\	ob-	2a/	ob-	2a/	ob-	2dd\	ob-
=22	=22	=22	=22	=22	=22	=22	=22
1G	-fi-	1b-	-fi-	1dd	-fi-	1gg	-fi-
=23	=23	=23	=23	=23	=23	=23	=23
2D\	-tą	2a/	-tą	2dd\	-tą	2ff\	-tą
[2BB-/	krwią	[2b-\	krwią	[2dd\	krwią	[2ff\	krwią
=24	=24	=24	=24	=24	=24	=24	=24
2BB-/]	.	2b-\]	.	2dd\]	.	2ff\]	.
2F\	wszy-	2a/	wszy-	2cc\	wszy-	2ff\	wszy-
=25	=25	=25	=25	=25	=25	=25	=25
2C/	-tek	2g/	-tek	2cc\	-tek	2ee-i\	-tek
2E-\	skro-	2g/	skro-	4b-\	skro-	2gg\	skro-
.	.	.	.	4cc\	.	.	.
=26	=26	=26	=26	=26	=26	=26	=26
1D	-pio-	1a	-pio-	1dd	-pio-	1ff#	-pio-
=27	=27	=27	=27	=27	=27	=27	=27
[1GG	-ny.	[1bni	-ny.	[1dd	-ny.	[1gg	-ny.
=28	=28	=28	=28	=28	=28	=28	=28
1GG]	.	1b]	.	1dd]	.	1gg]	.
=29||	=29||	=29||	=29||	=29||	=29||	=29||	=29||
1G	Kto	1b-	Kto	1dd	Kto	1r	.
=30	=30	=30	=30	=30	=30	=30	=30
1F	Cię	1a	Cię	1cc	Cię	1r	.
=31	=31	=31	=31	=31	=31	=31	=31
1E-	kr&oacute;-	1g	kr&oacute;-	1b-	kr&oacute;-	1r	.
=32	=32	=32	=32	=32	=32	=32	=32
2D\	-lu	2f/	-lu	2b-\	-lu	1r	.
2E-i\	nad	[2b-\	nad	2b-\	nad	.	.
=33	=33	=33	=33	=33	=33	=33	=33
1C	kr&oacute;-	2b-\]	.	1ee-	kr&oacute;-	1r	.
.	.	2a/	kr&oacute;-	.	.	.	.
=34	=34	=34	=34	=34	=34	=34	=34
1G	-lmi	1b-	-lmi	1dd	-lmi	1r	.
=35	=35	=35	=35	=35	=35	=35	=35
1GG	kto	1b-	kto	1dd	kto	1gg	Kto
=36	=36	=36	=36	=36	=36	=36	=36
1D	Cię	1a	Cię	1dd	Cię	1ff	Cię
=37	=37	=37	=37	=37	=37	=37	=37
1C	kr&oacute;-	1g	kr&oacute;-	1cc	kr&oacute;-	1ee-	kr&oacute;-
=38	=38	=38	=38	=38	=38	=38	=38
2BB-/	-lu	2g/	-lu	2dd\	-lu	2dd\	-lu
2C/	nad	[2g/	nad	2cc\	nad	2ee-i\	nad
=39	=39	=39	=39	=39	=39	=39	=39
1AA	kr&oacute;-	2g/]	.	1cc	kr&oacute;-	1cc	kr&oacute;-
.	.	2f#/	kr&oacute;-	.	.	.	.
=40	=40	=40	=40	=40	=40	=40	=40
2GG/	-lmi	2g/	-lmi	2bn\	-lmi	2dd\	-lmi
[2C/	o	[2g/	o	[2cc\	o	[2ee-\	o
=41	=41	=41	=41	=41	=41	=41	=41
2C/]	.	2g/]	.	2cc\]	.	2ee-\]	.
2GG/	nie-	2bni\	nie-	2dd\	nie-	2dd\	nie-
=42	=42	=42	=42	=42	=42	=42	=42
2E-\	-szczęść	2g/	-szczęść	2ee-i\	-szczęść	2cc\	-szczęść
2BBn/	przy-	2g/	przy-	2dd\	przy-	2bni\	przy-
=43	=43	=43	=43	=43	=43	=43	=43
1C	-pra-	1g	-pra-	1cc	-pra-	1cc	-pra-
=44	=44	=44	=44	=44	=44	=44	=44
2GG/	-wił	2g/	-wił	2g/	-wił	2dd\	-wił
[2E-\	o	[2g/	o	[2cc\	o	[2ee-\	o
=45	=45	=45	=45	=45	=45	=45	=45
2E-\]	.	2g/]	.	2cc\]	.	2ee-\]	.
2BBni/	nie-	2bni\	nie-	2dd\	nie-	2dd\	nie-
=46	=46	=46	=46	=46	=46	=46	=46
2C/	-szczęść	2g/	-szczęść	2ee-\	-szczęść	2cc\	-szczęść
2GG/	przy-	2g/	przy-	2dd\	przy-	2bni\	przy-
=47	=47	=47	=47	=47	=47	=47	=47
1C	-pra-	1g	-pra-	1ee-i	-pra-	1cc	-pra-
=48	=48	=48	=48	=48	=48	=48	=48
2GG/	-wił	2g/	-wił	2dd\	-wił	2b-\	-wił
[2GG/	kto	[2d/	kto	[2dd\	kto	[2b-\	kto
=49	=49	=49	=49	=49	=49	=49	=49
2GG/]	.	2d/]	.	2dd\]	.	2b-\]	.
2FF/	Cię	2f/	Cię	2cc\	Cię	2cc\	Cię
=50	=50	=50	=50	=50	=50	=50	=50
1BB-	tak	1f	tak	1b-	tak	1dd	tak
=51	=51	=51	=51	=51	=51	=51	=51
2BB-/	ob-	2f/	ob-	2b-\	ob-	2dd\	ob-
2GG/	-na-	2g/	-na-	2b-\	-na-	2dd\	-na-
=52	=52	=52	=52	=52	=52	=52	=52
1C	-żo-	1g	-żo-	1cc	-żo-	1ee-	-żo-
=53	=53	=53	=53	=53	=53	=53	=53
2BB-/	-nym	2f/	-nym	2dd\	-nym	2dd\	-nym
[2BB-/	wsze-	[2f/	wsze-	[2b-\	wsze-	[2dd\	wsze-
=54	=54	=54	=54	=54	=54	=54	=54
2BB-/]	.	2f/]	.	2b-\]	.	2dd\]	.
2GG/	-mu	2g/	-mu	2b-\	-mu	2ee-i\	-mu
=55	=55	=55	=55	=55	=55	=55	=55
2FF/	świa-	2a/	świa-	2a/	świa-	2cc\	świa-
2GG/	-tu	2g/	-tu	2g/	-tu	2b-\	-tu
=56	=56	=56	=56	=56	=56	=56	=56
1AA	sta-	2e/	sta-	1a	sta-	1cc	sta-
.	.	2f#i/	.	.	.	.	.
=57	=57	=57	=57	=57	=57	=57	=57
[1GG	-wił.	[1g	-wił.	[1bn	-wił.	[1dd	-wił.
=58	=58	=58	=58	=58	=58	=58	=58
1GG]	.	1g]	.	1b]	.	1dd]	.
=59||	=59||	=59||	=59||	=59||	=59||	=59||	=59||
2r	.	2r	.	2r	.	2r	.
2GG/	Kto	2g/	Kto	2bn\	Kto	2dd\	Kto
=60	=60	=60	=60	=60	=60	=60	=60
1C	był	1g	był	1cc	był	1ee-	był
=61	=61	=61	=61	=61	=61	=61	=61
2GG/	na-	2g/	na-	2bni\	na-	2dd\	na-
[2C/	-po-	[2g/	-po-	[2cc\	-po-	[2ee-i\	-po-
=62	=62	=62	=62	=62	=62	=62	=62
2C/]	.	2g/]	.	2cc\]	.	2ee-\]	.
2E-\	-jon	2g/	-jon	2cc\	-jon	2gg\	-jon
=63	=63	=63	=63	=63	=63	=63	=63
1D	ż&oacute;ł-	1a	ż&oacute;ł-	1dd	ż&oacute;ł-	1ff#	ż&oacute;ł-
=64	=64	=64	=64	=64	=64	=64	=64
2GG/	-cią	2b-\	-cią	2dd\	-cią	2gg\	-cią
2G\	kto	2b-\	kto	2dd\	kto	2gg\	kto
=65	=65	=65	=65	=65	=65	=65	=65
1E-	był	1b-	był	1ee-	był	1gg	był
=66	=66	=66	=66	=66	=66	=66	=66
2BB-/	na-	2b-\	na-	2dd\	na-	2ff\	na-
[2E-\	-po-	[2b-\	-po-	[2b-\	-po-	[2ee-\	-po-
=67	=67	=67	=67	=67	=67	=67	=67
2E-\]	.	2b-\]	.	2b-\]	.	2ee-\]	.
2G\	-jon	2b-\	-jon	2b-\	-jon	2dd\	-jon
=68	=68	=68	=68	=68	=68	=68	=68
1F	ż&oacute;ł-	1a	ż&oacute;ł-	1cc	ż&oacute;ł-	1ff	ż&oacute;ł-
=69	=69	=69	=69	=69	=69	=69	=69
2BB-/	-cią	2b-\	-cią	2dd\	-cią	2ff\	-cią
[2BB-/	przy-	[2b-\	przy-	[2dd\	przy-	[2ff\	przy-
=70	=70	=70	=70	=70	=70	=70	=70
2BB-/]	.	2b-\]	.	2dd\]	.	2ff\]	.
2F\	-czy-	2a/	-czy-	2cc\	-czy-	2ff\	-czy-
=71	=71	=71	=71	=71	=71	=71	=71
2G\	-na	2g/	-na	2b-\	-na	2dd\	-na
2D\	go-	2f#/	go-	2a/	go-	[2dd\	go-
=72	=72	=72	=72	=72	=72	=72	=72
[1E-	-rzkie-	[1g	-rzkie-	2.b-\	.	2dd\]	.
.	.	.	.	.	.	4cc\	.
.	.	.	.	4a/	.	4b-\	.
=73	=73	=73	=73	=73	=73	=73	=73
1E-]	.	1g]	.	1g	-rzkie-	1cc	-rzkie-
=74	=74	=74	=74	=74	=74	=74	=74
1D	-go	1f#	-go	1a	-go	1dd	-go
=75	=75	=75	=75	=75	=75	=75	=75
2r	.	2r	.	2r	.	2r	.
[2D\	kto	[2f#i/	kto	[2a/	kto	[2dd\	kto
=76	=76	=76	=76	=76	=76	=76	=76
2D\]	.	2f#/]	.	2a/]	.	2dd\]	.
2GG/	hań-	2g/	hań-	2bn\	hań-	2dd\	hań-
=77	=77	=77	=77	=77	=77	=77	=77
2C/	-by	2g/	-by	2cc\	-by	2ee\	-by
2FF/	po-	2a/	po-	2cc\	po-	2ff\	po-
=78	=78	=78	=78	=78	=78	=78	=78
[1GG	-śmie-	[1g	-śmie-	[1b-	-śmie-	[1dd	-śmie-
=79	=79	=79	=79	=79	=79	=79	=79
2GG/]	.	2g/]	.	2b-\]	.	2dd\]	.
2AA/	-wi-	2e/	-wi-	2a/	-wi-	2cc#i\	-wi-
=80	=80	=80	=80	=80	=80	=80	=80
1D	-ska	1f#	-ska	1a	-ska	1dd	-ska
=81	=81	=81	=81	=81	=81	=81	=81
[1D	tak	[1a	tak	[1dd	tak	[1ff	tak
=82	=82	=82	=82	=82	=82	=82	=82
2D\]	.	2a/]	.	2dd\]	.	2ff\]	.
2F\	u-	2a/	u-	2cc\	u-	2ff\	u-
=83	=83	=83	=83	=83	=83	=83	=83
2C/	-szczy-	2cc\	-szczy-	2ee-\	-szczy-	2gg\	-szczy-
2D\	-pli-	2a/	-pli-	2dd\	-pli-	2ff\	-pli-
=84	=84	=84	=84	=84	=84	=84	=84
2F\	-we-	2a/	-we-	2cc\	-we-	2ff\	-we-
2BB-/	-go	2b-\	-go	2dd\	-go	2ff\	-go
=85	=85	=85	=85	=85	=85	=85	=85
2r	.	2r	.	2r	.	2r	.
[2F\	tak	[2a/	tak	[2cc\	tak	[2ff\	tak
=86	=86	=86	=86	=86	=86	=86	=86
2F\]	.	2a/]	.	2cc\]	.	2ff\]	.
2D\	u-	2a/	u-	2dd\	u-	2ff\	u-
=87	=87	=87	=87	=87	=87	=87	=87
2E-\	-sczy-	2g/	-szczy-	2b-\	-sczy-	2ee-\	-sczy-
2C/	-pli-	[2g/	-pli-	2cc\	-pli-	2ee-\	-pli-
=88	=88	=88	=88	=88	=88	=88	=88
[1D	-we-	2g/]	.	[1a	-we-	[1dd	-we-
.	.	4f#i/	.	.	.	.	.
.	.	4e/	.	.	.	.	.
=89	=89	=89	=89	=89	=89	=89	=89
1D]	.	1f#i	-we-	1a]	.	1dd]	.
=90	=90	=90	=90	=90	=90	=90	=90
[1GG	-go.	[1g	-go.	[1bni	-go.	[1dd	-go.
=91	=91	=91	=91	=91	=91	=91	=91
1GG]	.	1g]	.	1b]	.	1dd]	.
==	==	==	==	==	==	==	==
*-	*-	*-	*-	*-	*-	*-	*-
!!!GTL: Hymnbook L 1642
!!!EFL: 11/39
!!!YEM: Creative Commons CC/BY/NC/SA 4.0
!!!ENC: Marcin Konik
!!!END: 2015-02-14 
!!!EED: Marcin Konik
!!!EEV: 
!!!ONB: Translated from MusicXML and edited by Marcin Konik
!!!CharacterEncoding: utf-8
!!!RDF**kern: i=editorial accidental
!!muse2ps: z14jc180F
!!title: @{OTL}, @{GTL}: @{pag}, ed. @{ENC}
